_includes/icons/ios-camera.svg

<svg fill="#666" height="50" viewBox="0 0 50 50" width="50" xmlns="http://www.w3.org/2000/svg"><path d="m24.375 4c-1.902344 0-3.675781 1.414063-4.4375 3.375l-.625 1.625h-5.3125v-1c0-.550781-.449219-1-1-1h-7c-.550781 0-1 .449219-1 1v1.40625c-2.863281.878906-5 3.453125-5 6.59375v21c0 3.855469 3.144531 7 7 7h36c3.855469 0 7-3.144531 7-7v-21c0-3.855469-3.144531-7-7-7h-2.3125l-.625-1.625c-.761719-1.960937-2.53125-3.375-4.4375-3.375zm0 2h11.25c.765625 0 2.085938.867188 2.5625 2.09375l.875 2.28125c.152344.382813.527344.628906.9375.625h3c2.773438 0 5 2.226563 5 5v21c0 2.773438-2.226562 5-5 5h-36c-2.773437 0-5-2.226562-5-5v-21c0-2.488281 1.792969-4.539062 4.15625-4.9375.480469-.074219.835938-.484375.84375-.96875v-1.09375h5v1c0 .550781.449219 1 1 1h7c.410156.003906.785156-.242187.9375-.625l.875-2.28125c.476563-1.226562 1.796875-2.09375 2.5625-2.09375zm5.625 7c-7.164062 0-13 5.835938-13 13 0 7.164063 5.835938 13 13 13 7.164063 0 13-5.835937 13-13 0-7.164062-5.835937-13-13-13zm-23 1c-1.105469 0-2 .894531-2 2s.894531 2 2 2 2-.894531 2-2-.894531-2-2-2zm23 1c6.085938 0 11 4.914063 11 11 0 6.085938-4.914062 11-11 11-6.085937 0-11-4.914062-11-11 0-6.085937 4.914063-11 11-11z"/></svg>

<svg xmlns="http://www.w3.org/2000/svg" viewBox="0 0 50 50" width="50" height="50" fill="#666"><path d="M 24.375 4 C 22.472656 4 20.699219 5.414063 19.9375 7.375 L 19.3125 9 L 14 9 L 14 8 C 14 7.449219 13.550781 7 13 7 L 6 7 C 5.449219 7 5 7.449219 5 8 L 5 9.40625 C 2.136719 10.285156 0 12.859375 0 16 L 0 37 C 0 40.855469 3.144531 44 7 44 L 43 44 C 46.855469 44 50 40.855469 50 37 L 50 16 C 50 12.144531 46.855469 9 43 9 L 40.6875 9 L 40.0625 7.375 C 39.300781 5.414063 37.53125 4 35.625 4 Z M 24.375 6 L 35.625 6 C 36.390625 6 37.710938 6.867188 38.1875 8.09375 L 39.0625 10.375 C 39.214844 10.757813 39.589844 11.003906 40 11 L 43 11 C 45.773438 11 48 13.226563 48 16 L 48 37 C 48 39.773438 45.773438 42 43 42 L 7 42 C 4.226563 42 2 39.773438 2 37 L 2 16 C 2 13.511719 3.792969 11.460938 6.15625 11.0625 C 6.636719 10.988281 6.992188 10.578125 7 10.09375 L 7 9 L 12 9 L 12 10 C 12 10.550781 12.449219 11 13 11 L 20 11 C 20.410156 11.003906 20.785156 10.757813 20.9375 10.375 L 21.8125 8.09375 C 22.289063 6.867188 23.609375 6 24.375 6 Z M 30 13 C 22.835938 13 17 18.835938 17 26 C 17 33.164063 22.835938 39 30 39 C 37.164063 39 43 33.164063 43 26 C 43 18.835938 37.164063 13 30 13 Z M 7 14 C 5.894531 14 5 14.894531 5 16 C 5 17.105469 5.894531 18 7 18 C 8.105469 18 9 17.105469 9 16 C 9 14.894531 8.105469 14 7 14 Z M 30 15 C 36.085938 15 41 19.914063 41 26 C 41 32.085938 36.085938 37 30 37 C 23.914063 37 19 32.085938 19 26 C 19 19.914063 23.914063 15 30 15 Z"/></svg>
